X:1
T:James Gibb editions
T:Martin menait son porceau - Janequin
T:#
%%score [ 1 2 3 4 ]
L:1/8
Q:1/4=130
M:4/4
K:F
V:1 treble nm="Soprano"
V:2 treble nm="Alto"
V:3 treble-8 nm="Tenor"
V:4 bass nm="Bass"
V:1
"^Martin menait son porceau""^Clément Janequin\n(1485-1558)" G4 A2 B2 | c4 B4 | A4 d4 | d4 c4 | %4
w: Mar- tin me-|nait son|por- ceau|au mar-|
 d8- | d4 A4 | B2 c2 d4 |[M:4/4] c4 B4 | A4 z2 A2 | G2 A2 B2 B2 | A4 G4 | G4 ^F4 | G4 d4 | d8 | %14
w: ché,|* Mar-|tin me- nait|son por-|ceau, Mar-|tin me- nait son|por- ceau|au mar-|ché, A-|vec|
 c8 | B4 G4 | B6 c2 | d4 d4 | (c8 | B4 d4- | d2 c2 B4- | B4 A4) | B4 B4 | A4 A4 | (G2 A2 B2 c2 | %25
w: A-|lix qui,|en la|plai- ne|gran\-||||de, pri-|a Mar-|tin, * * *|
 d4) A4 | B6 c2 | d4 d4 | c4 B4 | B4 A4 | B2 A2 B2 c2 | d4 c2 A2 | B2 c2 d4 | c2 A2 B2 c2 | d4 c4 | %35
w: * pri-|a Mar-|tin de|fai- re|le pê-|ché, De l'un sur|l'au- tre, de|l'un sur l'au-|tre, de l'un sur|l'au- tre.~~Et|
 c4 c4 | c4 c4 | B8 | A8 | z8 | z8 | z8 | z4 B4 | B2 B2 B4- | B2 B2 B2 G2 | A2 B2 c4 | G4 z4 | c8 | %48
w: Mar- tin|lui de-|man-|de:||||Et|qui tien- dra|* no- tre por-|ceau fri- an-|de?|Qui?|
 z4 c4 | c4 B4 | A8 | z4 f4 | e4 d4 | d4 ^c4 | d8 | B8 | B4 B4 | A4 B4 | (B2 A2 B2 c2 | d4) c4- | %60
w: Qui?|dit A-|lix,|Bon|re- mè-|de~~il y|a.|Lors|le por-|ceau à|sa * * *|* jam\-|
 c4 B4- | B4 A4 | B8 | z8 | z8 | z8 | z4 B4 | B2 B2 A4 | G2 A2 B2 A2 | B2 c2 d4 | d4 z4 | z8 | z8 | %73
w: * be|* li-|a.||||Et|Mar- tin ju-|che qui lour- de-|ment en- gai-|ne,|||
 z4 B4 | B2 B2 A4 | G2 A2 B2 A2 | B2 c2 d4 | G8 | c8 |: c4 c4 | (B2 A2 B2 c2 | d4) d4 | f4 f4 | %83
w: et|Mar- tin ju-|che qui lour- de-|ment en- gai-|ne,|Le|porc eut|peur * * *|* et|A- lix|
 d4 d4 | B2 d2 d2 d2 | B4 z2 d2 | d2 d2 B4 | z2 d2 d2 d2 | B2 G2 d2 d2 | c6 B2 |1 (A4 G4- | %91
w: s'é- cri-|a: Ser- re, Mar-|tin, ser-|re, Mar- tin,|ser- re, Mar-|tin, no- tre por-|ceau m'en-|trai\- *|
 G4 ^F4) | G8- | G8 | c8 :|2 A4 G2 G2 || F2 F2 D2 F2 || B6 A2 | G8- | G4 F4 | _E8 | D16 |] %102
w: |ne.||Le|trai- ne, ser-|re Mar- tin, no-|tre por-|ceau|* m'en-|trai-|ne.|
V:2
 z8 | z8 | D4 F2 G2 | A4 A4 | F4 B4 | B4 A4 | G4 D4 |[M:4/4] E2 F2 G2 G2 | F4 E2 A,2 | %9
w: ||Mar- tin me-|nait son|por- ceau|au mar-|ché, Mar-|tin me- nait son|por- ceau, Mar-|
 B,2 C2 D2 E2 | F4 D4 | D4 D4 | D4 B4- | B4 B4 | A8 | G8- | G4 D4 | F6 G2 | A4 A4 | G8 | F4 F4 | %21
w: tin me- nait son|por- ceau|au mar-|ché, A\-|* vec|A-|lix|* qui,|en la|plai- ne|gran-|de, Pri-|
 F4 F4 | (D6 E2 | F2 G2 A2) F2 | B6 A2 | G4 F4 | G8 | z4 F4 | G4 _E4 | F4 F4 | F6 E2 | F2 G2 A4 | %32
w: a Mar-|tin, *|* * * de|fai- re|le pê-|ché,|de|fai- re|le pê-|ché, De|l'un sur l'au-|
 G2 C2 F2 G2 | A4 G2 C2 | F2 G2 A2 A2 | A4 A4 | A4 A4 | G8 | F4 z4 | D4 D2 D2 | D8 | z4 A4 | %42
w: tre, de l'un sur|l'au- tre, de|l'un sur l'au- tre.~~Et|Mar- tin|lui de-|man-|de:|Et qui tien-|dra,|et|
 G2 G2 G4 | z4 z2 G2 | G2 G2 G2 E2 | F2 G2 A2 F2 | B4 G4- | G4 A4 | z4 G4 | A4 G4 | E4 A4 | G4 F4 | %52
w: qui tien- dra,|et|qui tien- dra no-|tre por- ceau fri-|an- de?|* Qui?|Qui?|dit A-|lix, Bon|re- mè-|
 G4 G4 | (A6 G2 | F2 E2 F4) | z4 D4 | G4 G4 | F4 (D2 E2 | D2 E2 F4- | F2 G2 A4) | F4 G4 | F4 F4 | %62
w: de~~il y|a. *||Lors|le por-|ceau à *|||sa jam-|be li-|
 D8 | z8 | z4 B4 | B4 B4 | A4 G4- | G2 G2 F2 D2 | E2 F2 G4 | D8 | z8 | z8 | B4 B2 B2 | A4 G4- | %74
w: a.||Et|Mar- tin|ju- che|* qui lour- de-|ment en- gai-|ne,|||et Mar- tin|ju- che|
 G2 G2 F2 D2 | E2 F2 G4 | D8 | z8 | A8 |: A4 A4 | G8 | z8 | D4 F4 | F4 F2 F2 | G4 z2 G2 | %85
w: * qui lour- de-|ment en- gai-|ne,||Le|porc eut|peur||et A-|lix s'é- cri-|a: Ser-|
 G2 G2 D4 | z2 F2 G2 G2 | D4 z2 F2 | G2 G2 D2 D2 | G6 F2 |1 F4 D4 | D8 | D8- | D8 | A8 :|2 %95
w: re, Mar- tin,|ser- re, Mar-|tin, ser-|re, Mar- tin, no-|tre por-|ceau m'en-|trai-|ne.||Le|
 F2 F2 D4 || D2 D2 F2 D2 || D2 D2 B,2 B,2 | B,2 B,2 _E4- | E2 D2 D2 D2 | C8 | =B,16 |] %102
w: ceau m'en- trai-|ne, ser- re, Mar|tin, ser- re, Mar-|tin, no- tre|* por- ceau m'en-|trai-|ne.|
V:3
 z8 | c4 d2 e2 | f8- | f4 e4 | d4 g4 | g4 ^f4 | g4 z4 |[M:4/4][K:treble-8] A4 B2 c2 | d4 c4 | %9
w: |Mar- tin me-|nait|* son|por- ceau|au mar-|ché,|Mar- tin me-|nait son|
 B4 G4 | (c2 B2 A2 G2 | A4) A4 | G8 | z4 f4 | f4 f4 | d8- | d8 | z8 | z4 F4 | B6 c2 | d4 d4 | c8 | %22
w: por- ceau|au * * *|* mar-|ché,|A-|vec A-|lix|||qui,|en la|plai- ne|gran-|
 B6 c2 | d4 d4 | (G6 A2 | B2 c2 d4- | d4 d4 | d4 d4 | (_e2 d2 c2 B2 | c4) c4 | B2 c2 d2 c2 | %31
w: de, Pri-|a Mar-|tin, *||* de|fai- re|le * * *|* pê-|ché, De l'un sur|
 B4 A4 | z4 d4 | f6 e2 | d2 e2 f2 f2 | f4 f4 | f4 f4 | d8 | d4 f4 | f2 f2 f4- | f2 f2 f2 d2 | %41
w: l'au- tre,|de|l'un, de|l'un sur l'au- tre.~~Et|Mar- tin|lui de-|man-|de: Et|qui tien- dra|* no- tre por-|
 g4 f4 | e4 d4 | z8 | z8 | z8 | z4 e4- | e4 z4 | e8 | f4 d4 | c4 f4 | e4 d4 | g2 f2 e2 d2 | %53
w: ceau fri-|an- de?||||Qui?||Qui?|dit A-|lix, Bon|re- mè-|de~~il * * *|
 e4) e4 | d8 | g8 | d8 | d4 d4 | (d2 c2 d2 e2 | f4) f4 | (d4 _e4) | c4 c4 | B8 | f4 f2 f2 | %64
w: * y|a.|Lors|le|por- ceau|à * * *|* sa|jam\- *|be li-|a.|Et Mar- tin|
 e4 d4- | d2 c2 d2 e2 | f2 d2 g4 | d4 z4 | z8 | z8 | f4 f2 f2 | e4 d4- | d2 c2 d2 e2 | f2 d2 g4 | %74
w: ju- che|* qui lour- de-|ment en- gai-|ne,|||et Mar- tin|ju- che|* qui lour- de-|ment en- gai-|
 d4 z4 | z8 | z4 f4 | e2 c2 d2 e2 | f4 c2 f2 |: f4 f4 | d4 d4 | f4 f4 | d4 d4 | B4 z2 d2 | %84
w: ne,||qui|lour- de- ment en-|gai- ne, Le|porc eut|peur et|A- lix|s'é- cri-|a: Ser-|
 d2 d2 B2 d2 | d2 d2 B4 | d2 d2 d2 B2 | z4 z2 d2 | d2 d2 B2 B2 | _e6 d2 |1 c4 B4 | A8 | G8- | G8 | %94
w: re, Mar- tin, ser-|re, Mar- tin,|ser- re, Mar- tin,|ser-|re, Mar- tin, no-|tre por-|ceau m'en-|trai-|ne.||
 f8 :|2 c4 B4 || A8 || G8- | G8 | G8 | G8 | G16 |] %102
w: Le|ceau m'en-|trai-|ne.|||||
V:4
 z8 | z8 | z4 D,4 | F,2 G,2 A,2 A,2 | B,4 G,4 | D4 D4 | (G,2 A,2 B,4) |[M:4/4] z8 | D,4 E,2 F,2 | %9
w: ||Mar-|tin me- nait son|por- ceau|au mar-|ché, * *||Mar- tin me-|
 G,6 G,2 | F,4 G,4 | D,4 D,4 | G,8 | z4 B,,4 | F,4 F,4 | G,2 G,2 G,2 F,2 | G,2 A,2 B,4 | B,4 B,,4 | %18
w: nait son|por- ceau|au mar-|ché,|A-|vec A-|lix qui, en la|plai- ne gran-|de, a-|
 F,4 F,4 | G,2 F,2 G,2 A,2 | B,4 B,4 | F,8 | B,,8 | z8 | z8 | z4 D,4 | G,6 A,2 | B,4 B,4 | %28
w: vec A-|lix qui, en la|plai- ne|gran-|de,|||Pri-|a Mar-|tin, de|
 _E,4 G,4 | F,4 F,4 | B,,8 | z4 F,4 | G,2 A,2 B,4 | A,2 F,2 G,2 A,2 | B,4 F,4 | F,4 F,2 F,2 | %36
w: fai- re|le pê-|ché,|De|l'un sur l'au-|tre, de l'un sur|l'au- tre.|Et Mar- tin|
 F,4 F,4 | G,8 | D,8 | B,4 B,2 B,2 | B,6 B,2 | B,2 G,2 A,2 B,2 | C4 G,4 | z8 | z8 | z8 | z4 C4- | %47
w: lui de-|man-|de:|Et qui tien-|dra no-|tre por- ceau fri-|an- de?||||Qui?|
 C4 z4 | C8 | F,4 G,4 | (A,2 G,2 A,2 B,2 | C4 D4 | C4 B,4 | A,4 A,4 | D,8 | G,8 | G,4 G,4 | %57
w: |Qui,?|dit A-|lix, * * *|* Bon|re- mè-|de~~il y|a.|Lors|le por-|
 D,4 G,4 | B,4 B,4 | B,4 A,4 | B,4 _E,4 | F,4 F,4 | B,,4 B,4 | B,2 B,2 A,4 | G,6 A,2 | %65
w: ceau, lors|le por-|ceau à|sa jam-|be li-|a. Et|Mar- tin ju-|che qui|
 B,2 A,2 B,2 C2 | D4 G,4- | G,4 z4 | z8 | z4 B,4 | B,2 B,2 A,4 | G,6 A,2 | B,2 A,2 B,2 C2 | %73
w: lour- de- ment en-|gai- ne,|||et|Mar- tin ju-|che qui|lour- de- ment en-|
 D4 G,4- | G,4 z4 | z4 G,4 | G,2 G,2 B,2 B,2 | C4 G,4 | F,8 |: F,4 F,4 | G,6 F,E, | D,4) B,4 | %82
w: gai- ne,||qui|lour- de- ment en-|gai- ne,|Le|porc eut|peur * *|* et|
 B,4 B,4 | B,6 A,2 | G,8 | G,4 G,2 G,2 | D,4 G,4 | G,2 G,2 D,4 | G,4 G,2 G,2 | C,2 C,2 C,2 D,2 |1 %90
w: A- lix|s'é- cri-|a:|Ser- re, Mar-|tin, ser-|re, Mar- tin,|ser- re, Mar-|tin, no- tre por-|
 F,4 G,4 | D,8 | G,8- | G,8 | F,8 :|2 F,2 F,2 G,4 || D,2 D,2 D,2 D,2 || B,,2 B,,2 _E,4- | %98
w: ceau m'en-|trai-|ne.||Le|ceau m'en- trai-|ne, ser- re, Mar-|tin, no- tre|
 E,2 D,2 C,2 D,2 | (_E,4 B,,4 | C,8) | G,,16 |] %102
w: * por- ceau m'en-|trai\- *||ne.|

